src/assets/icon/Icon=fire.svg

<svg width="16" height="16" viewBox="0 0 16 16" fill="none" xmlns="http://www.w3.org/2000/svg">
<path d="M10.8747 2.25755C10.8747 2.25755 11.3288 4.5151 10.4206 6.32114C10.4206 6.32114 9.05819 0.903021 4.51694 0C4.51694 0 4.97107 0.45151 4.97107 1.80604C4.97107 3.16057 2.70044 5.41812 0.883946 8.12719C-0.932552 10.8362 0.476495 12.5 1.33808 13.2909C2.24633 14.194 4.51695 15.5485 5.4252 16C5.4252 16 1.7922 13.9968 7.24169 9.03021C7.24169 9.03021 6.78757 11.0334 8.60407 12.8394C8.60407 12.8394 9.51232 11.9364 9.96644 11.0334C9.96644 11.0334 11.7829 12.8394 9.96644 16C9.96644 16 14.9618 14.194 15.8701 10.5819C16.7783 6.96979 12.6912 3.61208 10.8747 2.25755Z" fill="#F15C00"/>
</svg>

<svg xmlns="http://www.w3.org/2000/svg" width="16" height="16" fill="none" viewBox="0 0 16 16"><path fill="#F15C00" d="M10.875 2.258s.454 2.257-.454 4.063c0 0-1.363-5.418-5.904-6.321 0 0 .454.452.454 1.806 0 1.355-2.27 3.612-4.087 6.321-1.817 2.71-.408 4.373.454 5.164.908.903 3.179 2.258 4.087 2.709 0 0-3.633-2.003 1.817-6.97 0 0-.454 2.003 1.362 3.81 0 0 .908-.904 1.362-1.807 0 0 1.817 1.806 0 4.967 0 0 4.996-1.806 5.904-5.418.908-3.612-3.179-6.97-4.995-8.324z"/></svg>
